poi/svg/200k_svg/200k_22.svg

<?xml version="1.0" encoding="UTF-8" standalone="no"?>
<svg
   xmlns:dc="http://purl.org/dc/elements/1.1/"
   xmlns:cc="http://creativecommons.org/ns#"
   xmlns:rdf="http://www.w3.org/1999/02/22-rdf-syntax-ns#"
   xmlns:svg="http://www.w3.org/2000/svg"
   xmlns="http://www.w3.org/2000/svg"
   xmlns:sodipodi="http://sodipodi.sourceforge.net/DTD/sodipodi-0.dtd"
   xmlns:inkscape="http://www.inkscape.org/namespaces/inkscape"
   inkscape:version="1.0 (4035a4fb49, 2020-05-01)"
   sodipodi:docname="200k_22.svg"
   id="svg38"
   version="1.2"
   viewBox="0 0 10.962 10.962"
   height="3.8671539mm"
   width="3.8671539mm">
  <metadata
     id="metadata42">
    <rdf:RDF>
      <cc:Work
         rdf:about="">
        <dc:format>image/svg+xml</dc:format>
        <dc:type
           rdf:resource="http://purl.org/dc/dcmitype/StillImage" />
      </cc:Work>
    </rdf:RDF>
  </metadata>
  <sodipodi:namedview
     inkscape:current-layer="svg38"
     inkscape:window-maximized="1"
     inkscape:window-y="-9"
     inkscape:window-x="-9"
     inkscape:cy="5.832006"
     inkscape:cx="7.4133409"
     inkscape:zoom="18.047943"
     showgrid="false"
     id="namedview40"
     inkscape:window-height="1013"
     inkscape:window-width="1920"
     inkscape:pageshadow="2"
     inkscape:pageopacity="0"
     guidetolerance="10"
     gridtolerance="10"
     objecttolerance="10"
     borderopacity="1"
     bordercolor="#666666"
     pagecolor="#ffffff" />
  <title
     id="title2">Qt SVG Document</title>
  <desc
     id="desc4">Generated with Qt</desc>
  <defs
     id="defs6" />
  <g
     transform="translate(-10.44,-11.626)"
     id="g36"
     stroke-linejoin="bevel"
     stroke-linecap="square"
     fill-rule="evenodd"
     stroke-width="1"
     stroke="#000000"
     fill="none">
    <g
       id="g8"
       font-style="normal"
       font-weight="400"
       font-size="8.25px"
       font-family="'MS Shell Dlg 2'"
       stroke="none"
       fill="none" />
    <g
       id="g10"
       font-style="normal"
       font-weight="400"
       font-size="8.25px"
       font-family="'MS Shell Dlg 2'"
       transform="scale(1.33333)"
       stroke="none"
       fill="none" />
    <g
       id="g14"
       font-style="normal"
       font-weight="400"
       font-size="8.25px"
       font-family="'MS Shell Dlg 2'"
       stroke="none"
       fill-opacity="1"
       fill="#33a02c">
      <path
         id="path12"
         d="m 21.402,17.114 c 0,0.756 -0.1423,1.4677 -0.427,2.135 -0.2847,0.6673 -0.6767,1.2483 -1.176,1.743 -0.4993,0.4947 -1.0827,0.8843 -1.75,1.169 -0.6673,0.2847 -1.379,0.427 -2.135,0.427 -0.756,0 -1.4677,-0.1423 -2.135,-0.427 -0.6673,-0.2847 -1.2483,-0.6743 -1.743,-1.169 -0.4947,-0.4947 -0.8843,-1.0757 -1.169,-1.743 -0.2847,-0.6673 -0.427,-1.379 -0.427,-2.135 0,-0.756 0.1423,-1.4677 0.427,-2.135 0.2847,-0.6673 0.6743,-1.2507 1.169,-1.75 0.4947,-0.4993 1.0757,-0.8913 1.743,-1.176 0.6673,-0.2847 1.379,-0.427 2.135,-0.427 0.756,0 1.4677,0.1423 2.135,0.427 0.6673,0.2847 1.2507,0.6767 1.75,1.176 0.4993,0.4993 0.8913,1.0827 1.176,1.75 0.2847,0.6673 0.427,1.379 0.427,2.135"
         fill-rule="evenodd"
         vector-effect="none" />
    </g>
    <g
       id="g16"
       font-style="normal"
       font-weight="400"
       font-size="8.25px"
       font-family="'MS Shell Dlg 2'"
       transform="scale(1.33333)"
       stroke="none"
       fill="none" />
    <g
       id="g18"
       font-style="normal"
       font-weight="400"
       font-size="8.25px"
       font-family="'MS Shell Dlg 2'"
       stroke="none"
       fill="none" />
    <g
       id="g20"
       font-style="normal"
       font-weight="400"
       font-size="8.25px"
       font-family="'MS Shell Dlg 2'"
       stroke-linejoin="bevel"
       stroke-linecap="square"
       stroke-width="1"
       stroke-opacity="1"
       stroke="#000000"
       fill="none" />
    <g
       id="g22"
       font-style="normal"
       font-weight="400"
       font-size="8.25px"
       font-family="'MS Shell Dlg 2'"
       stroke="none"
       fill="none" />
    <g
       id="g24"
       font-style="normal"
       font-weight="400"
       font-size="8.25px"
       font-family="'MS Shell Dlg 2'"
       transform="scale(1.33333)"
       stroke="none"
       fill="none" />
    <g
       id="g28"
       font-style="normal"
       font-weight="400"
       font-size="8.25px"
       font-family="'MS Shell Dlg 2'"
       stroke="none"
       fill-opacity="1"
       fill="#ffffff">
      <path
         id="path26"
         d="m 18.423092,14.332 -1.31,1 c -0.0133,0.0333 -0.0267,0.07 -0.04,0.11 -0.0133,0.04 -0.0267,0.0867 -0.04,0.14 -0.0333,0.0467 -0.0683,0.09 -0.105,0.13 -0.0367,0.04 -0.0817,0.0833 -0.135,0.13 l -0.72,0.52 c 0.0325,0.0267 0.0552,0.0567 0.0683,0.09 0.013,0.0333 0.0195,0.0667 0.0195,0.1 v 1 c 0,0.1067 -0.0357,0.19 -0.1072,0.25 -0.02,0.0133 -0.04,0.0233 -0.06,0.03 -0.02,0.0067 -0.0467,0.01 -0.08,0.01 l -1.04,0.19 0.63,1.97 h -1.71 l -0.3,-1.88 c -0.02,-0.0933 -0.0033,-0.1867 0.05,-0.28 0.04,-0.0733 0.11,-0.1433 0.21,-0.21 0.0267,-0.0267 0.07,-0.04 0.13,-0.04 0.24,0.0667 0.4567,0.0233 0.65,-0.13 0.0333,-0.0333 0.0617,-0.0617 0.085,-0.085 0.0233,-0.0233 0.045,-0.0517 0.065,-0.085 0.0333,-0.0533 0.0633,-0.1017 0.09,-0.145 0.0267,-0.0433 0.04,-0.085 0.04,-0.125 l 0.08,-0.11 0.11,-0.38 0.14,0.15 0.07,-0.06 -0.02,-0.07 0.78,-0.59 0.08,-0.29 -0.48,0.36 -0.11,-0.13 1.1594,-0.87 0.11,0.15 -0.32,0.23 -0.06,0.28 1.99,-1.48 0.08,0.12 m -2.6522,2.27 -0.55,0.76 0.53,-0.02 0.02,-0.74 m -1.44,0.67 c -0.1267,0.0933 -0.2683,0.1317 -0.425,0.115 -0.1567,-0.0167 -0.2817,-0.0883 -0.375,-0.215 -0.0933,-0.1333 -0.1283,-0.2783 -0.105,-0.435 0.0233,-0.1567 0.0983,-0.2817 0.225,-0.375 0.1333,-0.0933 0.2783,-0.13 0.435,-0.11 0.1567,0.02 0.2817,0.0933 0.375,0.22 0.0933,0.1267 0.1267,0.2683 0.1,0.425 -0.0267,0.1567 -0.1033,0.2817 -0.23,0.375"
         fill-rule="evenodd"
         vector-effect="none" />
    </g>
    <g
       id="g30"
       font-style="normal"
       font-weight="400"
       font-size="8.25px"
       font-family="'MS Shell Dlg 2'"
       transform="scale(1.33333)"
       stroke="none"
       fill="none" />
    <g
       id="g32"
       font-style="normal"
       font-weight="400"
       font-size="8.25px"
       font-family="'MS Shell Dlg 2'"
       stroke="none"
       fill="none" />
    <g
       id="g34"
       font-style="normal"
       font-weight="400"
       font-size="8.25px"
       font-family="'MS Shell Dlg 2'"
       stroke-linejoin="bevel"
       stroke-linecap="square"
       stroke-width="1"
       stroke-opacity="1"
       stroke="#000000"
       fill="none" />
  </g>
</svg>

<?xml version="1.0" encoding="UTF-8" standalone="no"?>
<svg width="11.2889mm" height="11.2889mm"
 viewBox="0 0 32 32"
 xmlns="http://www.w3.org/2000/svg" xmlns:xlink="http://www.w3.org/1999/xlink"  version="1.2" baseProfile="tiny">
<title>Qt SVG Document</title>
<desc>Generated with Qt</desc>
<defs>
</defs>
<g fill="none" stroke="black" stroke-width="1" fill-rule="evenodd" stroke-linecap="square" stroke-linejoin="bevel" >

<g fill="none" stroke="none" transform="matrix(1,0,0,1,0,0)"
font-family="MS Shell Dlg 2" font-size="8.25" font-weight="400" font-style="normal" 
>
</g>

<g fill="none" stroke="none" transform="matrix(1.33333,0,0,1.33333,0,0)"
font-family="MS Shell Dlg 2" font-size="8.25" font-weight="400" font-style="normal" 
>
</g>

<g fill="#33a02c" fill-opacity="1" stroke="none" transform="matrix(1,0,0,1,0,0)"
font-family="MS Shell Dlg 2" font-size="8.25" font-weight="400" font-style="normal" 
>
<path vector-effect="none" fill-rule="evenodd" d="M21.402,17.114 C21.402,17.87 21.2597,18.5817 20.975,19.249 C20.6903,19.9163 20.2983,20.4973 19.799,20.992 C19.2997,21.4867 18.7163,21.8763 18.049,22.161 C17.3817,22.4457 16.67,22.588 15.914,22.588 C15.158,22.588 14.4463,22.4457 13.779,22.161 C13.1117,21.8763 12.5307,21.4867 12.036,20.992 C11.5413,20.4973 11.1517,19.9163 10.867,19.249 C10.5823,18.5817 10.44,17.87 10.44,17.114 C10.44,16.358 10.5823,15.6463 10.867,14.979 C11.1517,14.3117 11.5413,13.7283 12.036,13.229 C12.5307,12.7297 13.1117,12.3377 13.779,12.053 C14.4463,11.7683 15.158,11.626 15.914,11.626 C16.67,11.626 17.3817,11.7683 18.049,12.053 C18.7163,12.3377 19.2997,12.7297 19.799,13.229 C20.2983,13.7283 20.6903,14.3117 20.975,14.979 C21.2597,15.6463 21.402,16.358 21.402,17.114 "/>
</g>

<g fill="none" stroke="none" transform="matrix(1.33333,0,0,1.33333,0,0)"
font-family="MS Shell Dlg 2" font-size="8.25" font-weight="400" font-style="normal" 
>
</g>

<g fill="none" stroke="none" transform="matrix(1,0,0,1,0,0)"
font-family="MS Shell Dlg 2" font-size="8.25" font-weight="400" font-style="normal" 
>
</g>

<g fill="none" stroke="#000000" stroke-opacity="1" stroke-width="1" stroke-linecap="square" stroke-linejoin="bevel" transform="matrix(1,0,0,1,0,0)"
font-family="MS Shell Dlg 2" font-size="8.25" font-weight="400" font-style="normal" 
>
</g>

<g fill="none" stroke="none" transform="matrix(1,0,0,1,0,0)"
font-family="MS Shell Dlg 2" font-size="8.25" font-weight="400" font-style="normal" 
>
</g>

<g fill="none" stroke="none" transform="matrix(1.33333,0,0,1.33333,0,0)"
font-family="MS Shell Dlg 2" font-size="8.25" font-weight="400" font-style="normal" 
>
</g>

<g fill="#ffffff" fill-opacity="1" stroke="none" transform="matrix(1,0,0,1,0,0)"
font-family="MS Shell Dlg 2" font-size="8.25" font-weight="400" font-style="normal" 
>
<path vector-effect="none" fill-rule="evenodd" d="M18.4422,14.29 L17.1322,15.29 C17.1189,15.3233 17.1055,15.36 17.0922,15.4 C17.0789,15.44 17.0655,15.4867 17.0522,15.54 C17.0189,15.5867 16.9839,15.63 16.9472,15.67 C16.9105,15.71 16.8655,15.7533 16.8122,15.8 L16.0922,16.32 C16.1247,16.3467 16.1474,16.3767 16.1605,16.41 C16.1735,16.4433 16.18,16.4767 16.18,16.51 L16.18,17.51 C16.18,17.6167 16.1443,17.7 16.0728,17.76 C16.0528,17.7733 16.0328,17.7833 16.0128,17.79 C15.9928,17.7967 15.9661,17.8 15.9328,17.8 L14.8928,17.99 L15.5228,19.96 L13.8128,19.96 L13.5128,18.08 C13.4928,17.9867 13.5095,17.8933 13.5628,17.8 C13.6028,17.7267 13.6728,17.6567 13.7728,17.59 C13.7995,17.5633 13.8428,17.55 13.9028,17.55 C14.1428,17.6167 14.3595,17.5733 14.5528,17.42 C14.5861,17.3867 14.6145,17.3583 14.6378,17.335 C14.6611,17.3117 14.6828,17.2833 14.7028,17.25 C14.7361,17.1967 14.7661,17.1483 14.7928,17.105 C14.8195,17.0617 14.8328,17.02 14.8328,16.98 L14.9128,16.87 L15.0228,16.49 L15.1628,16.64 L15.2328,16.58 L15.2128,16.51 L15.9928,15.92 L16.0728,15.63 L15.5928,15.99 L15.4828,15.86 L16.6422,14.99 L16.7522,15.14 L16.4322,15.37 L16.3722,15.65 L18.3622,14.17 L18.4422,14.29 M15.79,16.56 L15.24,17.32 L15.77,17.3 L15.79,16.56 M14.35,17.23 C14.2233,17.3233 14.0817,17.3617 13.925,17.345 C13.7683,17.3283 13.6433,17.2567 13.55,17.13 C13.4567,16.9967 13.4217,16.8517 13.445,16.695 C13.4683,16.5383 13.5433,16.4133 13.67,16.32 C13.8033,16.2267 13.9483,16.19 14.105,16.21 C14.2617,16.23 14.3867,16.3033 14.48,16.43 C14.5733,16.5567 14.6067,16.6983 14.58,16.855 C14.5533,17.0117 14.4767,17.1367 14.35,17.23 "/>
</g>

<g fill="none" stroke="none" transform="matrix(1.33333,0,0,1.33333,0,0)"
font-family="MS Shell Dlg 2" font-size="8.25" font-weight="400" font-style="normal" 
>
</g>

<g fill="none" stroke="none" transform="matrix(1,0,0,1,0,0)"
font-family="MS Shell Dlg 2" font-size="8.25" font-weight="400" font-style="normal" 
>
</g>

<g fill="none" stroke="#000000" stroke-opacity="1" stroke-width="1" stroke-linecap="square" stroke-linejoin="bevel" transform="matrix(1,0,0,1,0,0)"
font-family="MS Shell Dlg 2" font-size="8.25" font-weight="400" font-style="normal" 
>
</g>
</g>
</svg>
